X:474
T: ES BLAEST DER SENN AUF HOHER ALP
N: F0893
O: Europa, Mitteleuropa, Deutschland
R: Natur - Lied
M: 4/4
L: 1/8
K: F
F2 | F2F2G2c2 | A3GF2
c2 | B2B2A2c2 | G6
c2 | c2A2cBG2 | A3Bc2
f2 | c2A2cBG2 | F4z2

@@@ Tune index: 5905
